blockchains/elrond/assets/ITHEUM-df6f26/logo.svg

<svg fill="none" height="262" viewBox="0 0 262 262" width="262" xmlns="http://www.w3.org/2000/svg"><circle cx="131.621" cy="130.379" fill="#fff" r="129.137"/><path d="m168.945 169.286c.645-.728 1.428-1.322 2.302-1.746.875-.425 1.825-.672 2.795-.728l4.327-24.42c-.469-.209-.914-.468-1.328-.771l-18.886 16.732c.577 1.07.878 2.268.876 3.485 0 .656-.089 1.309-.265 1.942zm43.599 18.847-26.876-46.645c-1.15.881-2.536 1.4-3.981 1.49l-4.394 24.419c1.217.522 2.271 1.364 3.048 2.437.778 1.073 1.251 2.337 1.369 3.659.118 1.321-.123 2.649-.697 3.844-.575 1.194-1.462 2.211-2.567 2.941s-2.386 1.146-3.709 1.205c-1.322.058-2.635-.243-3.8-.872-1.165-.63-2.138-1.564-2.816-2.703s-1.035-2.441-1.034-3.767c.001-.652.09-1.301.266-1.929l-10.207-5.52c-1.227 1.408-2.947 2.288-4.804 2.461l-2.774 20.736c1.581.579 2.911 1.693 3.759 3.15s1.162 3.166.886 4.83h52.717c1.134-.003 2.248-.304 3.23-.874.981-.569 1.796-1.387 2.363-2.372.567-.984.867-2.101.868-3.237.001-1.137-.295-2.254-.86-3.24zm-81.278-54.533c-.758-1.191-1.159-2.576-1.155-3.99.003-1.332.37-2.639 1.062-3.777l-25.35-24.593c-.774.5-1.633.851-2.535 1.038l-1.871 58.961c.675.186 1.323.464 1.924.825zm-22.085-38.5713c.001 1.3316-.361 2.6382-1.049 3.7776l25.35 24.5927c1.184-.775 2.568-1.186 3.982-1.184 1.823.005 3.579.688 4.928 1.917 1.349 1.228 2.194 2.915 2.371 4.734l29.65 4.07c.356-.921.891-1.761 1.575-2.471.683-.711 1.502-1.277 2.407-1.666l-41.9-72.7143c-.567-.9862-1.383-1.8054-2.366-2.3749-.984-.5696-2.099-.8695-3.235-.8695s-2.251.2999-3.234.8695c-.984.5695-1.8 1.3887-2.367 2.3749l-19.045 33.0652c.911.6842 1.65 1.5717 2.159 2.5921.509 1.0207.774 2.146.774 3.2867zm35.609 69.2963-37.972 4.735c-.054.501-.156.995-.305 1.476l35.198 21.068c1.21-1.267 2.836-2.056 4.579-2.221l2.787-20.735c-.978-.363-1.867-.932-2.606-1.669-.74-.736-1.313-1.623-1.681-2.601zm-7.313-27.359c-1.344-.002-2.662-.374-3.809-1.078l-27.871 28.517c.282.442.514.915.69 1.409l37.971-4.734c.109-1.003.422-1.972.92-2.848.497-.876 1.169-1.641 1.974-2.246l-8.441-19.153c-.473.089-.953.133-1.434.133zm-32.676 36.536c-.799.828-1.78 1.456-2.866 1.833-1.085.378-2.244.494-3.3826.339-1.1387-.154-2.2248-.574-3.1714-1.227-.9464-.653-1.7266-1.519-2.277-2.53-.5505-1.011-.8561-2.137-.8922-3.288s.1983-2.294.6844-3.337 1.2105-1.957 2.1142-2.668c.9036-.711 1.9615-1.199 3.0884-1.425l1.8712-58.961c-.3275-.083-.6472-.194-.9555-.333l-49.7175 86.228c-.5646.986-.8613 2.103-.86 3.239.0013 1.137.3004 2.254.8676 3.238.5671.984 1.3822 1.803 2.3639 2.372.9815.57 2.0952.871 3.2296.874h84.8489c-.058-.361-.089-.726-.093-1.091-.003-.764.118-1.523.358-2.248zm46.864-18.94c1.52-.012 3.005.453 4.247 1.33l18.886-16.732c-.472-.872-.761-1.831-.849-2.819l-29.65-4.07c-.505 1.287-1.354 2.41-2.455 3.245l8.454 19.139c.45-.094.907-.147 1.367-.159z" fill="#000"/></svg>

<svg width="262" height="262" viewBox="0 0 262 262" fill="none" xmlns="http://www.w3.org/2000/svg">
<circle cx="131.621" cy="130.379" r="129.137" fill="white"/>
<path d="M168.945 169.286C169.59 168.558 170.373 167.964 171.247 167.54C172.122 167.115 173.072 166.868 174.042 166.812L178.369 142.392C177.9 142.183 177.455 141.924 177.041 141.621L158.155 158.353C158.732 159.423 159.033 160.621 159.031 161.838C159.031 162.494 158.942 163.147 158.766 163.78L168.945 169.286ZM212.544 188.133L185.668 141.488C184.518 142.369 183.132 142.888 181.687 142.978L177.293 167.397C178.51 167.919 179.564 168.761 180.341 169.834C181.119 170.907 181.592 172.171 181.71 173.493C181.828 174.814 181.587 176.142 181.013 177.337C180.438 178.531 179.551 179.548 178.446 180.278C177.341 181.008 176.06 181.424 174.737 181.483C173.415 181.541 172.102 181.24 170.937 180.611C169.772 179.981 168.799 179.047 168.121 177.908C167.443 176.769 167.086 175.467 167.087 174.141C167.088 173.489 167.177 172.84 167.353 172.212L157.146 166.692C155.919 168.1 154.199 168.98 152.342 169.153L149.568 189.889C151.149 190.468 152.479 191.582 153.327 193.039C154.175 194.496 154.489 196.205 154.213 197.869H206.93C208.064 197.866 209.178 197.565 210.16 196.995C211.141 196.426 211.956 195.608 212.523 194.623C213.09 193.639 213.39 192.522 213.391 191.386C213.392 190.249 213.096 189.132 212.531 188.146L212.544 188.133ZM131.266 133.6C130.508 132.409 130.107 131.024 130.111 129.61C130.114 128.278 130.481 126.971 131.173 125.833L105.823 101.24C105.049 101.74 104.19 102.091 103.288 102.278L101.417 161.239C102.092 161.425 102.74 161.703 103.341 162.064L131.266 133.6ZM109.181 95.0287C109.182 96.3603 108.82 97.6669 108.132 98.8063L133.482 123.399C134.666 122.624 136.05 122.213 137.464 122.215C139.287 122.22 141.043 122.903 142.392 124.132C143.741 125.36 144.586 127.047 144.763 128.866L174.413 132.936C174.769 132.015 175.304 131.175 175.988 130.465C176.671 129.754 177.49 129.188 178.395 128.799L136.495 56.0847C135.928 55.0985 135.112 54.2793 134.129 53.7098C133.145 53.1402 132.03 52.8403 130.894 52.8403C129.758 52.8403 128.643 53.1402 127.66 53.7098C126.676 54.2793 125.86 55.0985 125.293 56.0847L106.248 89.1499C107.159 89.8341 107.898 90.7216 108.407 91.742C108.916 92.7627 109.181 93.888 109.181 95.0287ZM144.79 164.325L106.818 169.06C106.764 169.561 106.662 170.055 106.513 170.536L141.711 191.604C142.921 190.337 144.547 189.548 146.29 189.383L149.077 168.648C148.099 168.285 147.21 167.716 146.471 166.979C145.731 166.243 145.158 165.356 144.79 164.378V164.325ZM137.477 136.966C136.133 136.964 134.815 136.592 133.668 135.888L105.797 164.405C106.079 164.847 106.311 165.32 106.487 165.814L144.458 161.08C144.567 160.077 144.88 159.108 145.378 158.232C145.875 157.356 146.547 156.591 147.352 155.986L138.911 136.833C138.438 136.922 137.958 136.966 137.477 136.966ZM104.801 173.502C104.002 174.33 103.021 174.958 101.935 175.335C100.85 175.713 99.691 175.829 98.5524 175.674C97.4137 175.52 96.3276 175.1 95.381 174.447C94.4346 173.794 93.6544 172.928 93.104 171.917C92.5535 170.906 92.2479 169.78 92.2118 168.629C92.1757 167.478 92.4101 166.335 92.8962 165.292C93.3823 164.249 94.1067 163.335 95.0104 162.624C95.914 161.913 96.9719 161.425 98.0988 161.199L99.97 102.238C99.6425 102.155 99.3228 102.044 99.0145 101.905L49.297 188.133C48.7324 189.119 48.4357 190.236 48.437 191.372C48.4383 192.509 48.7374 193.626 49.3046 194.61C49.8717 195.594 50.6868 196.413 51.6685 196.982C52.65 197.552 53.7637 197.853 54.8981 197.856H139.747C139.689 197.495 139.658 197.13 139.654 196.765C139.651 196.001 139.772 195.242 140.012 194.517L104.801 173.502ZM151.665 154.562C153.185 154.55 154.67 155.015 155.912 155.892L174.798 139.16C174.326 138.288 174.037 137.329 173.949 136.341L144.299 132.271C143.794 133.558 142.945 134.681 141.844 135.516L150.298 154.655C150.748 154.561 151.205 154.508 151.665 154.496V154.562Z" fill="black"/>
</svg>
